resources/haticons/SVG/bluetooth_searching.svg

<!-- Generated by IcoMoon.io -->
<svg version="1.1" xmlns="http://www.w3.org/2000/svg" width="24" height="24" viewBox="0 0 24 24">
<title>bluetooth_searching</title>
<path d="M12.891 16.313l-1.875-1.922v3.797zM11.016 5.813v3.797l1.875-1.922zM15.703 7.688l-4.313 4.313 4.313 4.313-5.719 5.672h-0.984v-7.594l-4.594 4.594-1.406-1.406 5.578-5.578-5.578-5.578 1.406-1.406 4.594 4.594v-7.594h0.984zM19.547 6.703q1.453 2.344 1.453 5.203 0 2.813-1.547 5.297l-1.172-1.172q0.984-1.969 0.984-4.031t-0.984-4.031zM14.25 12l2.297-2.297q0.469 1.172 0.469 2.297 0 1.172-0.469 2.344z"></path>
</svg>

<svg xmlns="http://www.w3.org/2000/svg" width="24" height="24"><path d="M12.891 16.313l-1.875-1.922v3.797zm-1.875-10.5V9.61l1.875-1.922zm4.687 1.875l-4.313 4.313 4.313 4.313-5.719 5.672H9v-7.594l-4.594 4.594L3 17.58l5.578-5.578L3 6.424l1.406-1.406L9 9.612V2.018h.984zm3.844-.985Q21 9.047 21 11.906q0 2.813-1.547 5.297l-1.172-1.172q.984-1.969.984-4.031t-.984-4.031zM14.25 12l2.297-2.297q.469 1.172.469 2.297 0 1.172-.469 2.344z"/></svg>
